X: 1
T: Five'll Get You Ten
C: Sargon de Jesus (Aug 2012)
R: jig
Z: 2012 John Chambers <jc:trillian.mit.edu>
M: 6/8
L: 1/8
K: Am
|:\
EAA A2B | dBA BAz | zGA zGA | dBA B3 |\
EAA A2B | dBA BAz | zGA zGA | dBA G3 :|
|:\
d2B d2e | edB d2B | BAG BAG | dBA B3 |\
d2B d2e | edB d2B | BAG DEA | DBA G3 :|
